Arcticons/scalable/apps/canvasstudent.svg

<svg id="Layer_2" data-name="Layer 2" viewBox="0 0 48 48" xmlns="http://www.w3.org/2000/svg">
 <defs>
  <style>.cls-1{fill:none;stroke:#fff;stroke-linecap:round;stroke-linejoin:round;}</style>
 </defs>
 <path class="cls-1" d="M24,33.13a2.13,2.13,0,1,0,2.13,2.13A2.13,2.13,0,0,0,24,33.13Z"/>
 <path class="cls-1" d="m24 39.43a6.08 6.08 0 0 0-6 5.21 21.23 21.23 0 0 0 12 0 6.08 6.08 0 0 0-6-5.21z"/>
 <circle class="cls-1" cx="16.04" cy="31.96" r="2.13"/>
 <path class="cls-1" d="m13.09 34.91a6 6 0 0 0-7.92-0.54 21.64 21.64 0 0 0 8.46 8.46 6 6 0 0 0-0.54-7.92z"/>
 <circle class="cls-1" cx="12.74" cy="24" r="2.13"/>
 <path class="cls-1" d="m8.57 24a6.08 6.08 0 0 0-5.21-6 21.23 21.23 0 0 0 0 12 6.08 6.08 0 0 0 5.21-6z"/>
 <circle class="cls-1" cx="16.04" cy="16.04" r="2.13"/>
 <path class="cls-1" d="m13.09 13.09a6 6 0 0 0 0.54-7.92 21.64 21.64 0 0 0-8.46 8.46 6 6 0 0 0 7.92-0.54z"/>
 <path class="cls-1" d="m24 10.61a2.14 2.14 0 1 0 2.13 2.15 2.13 2.13 0 0 0-2.13-2.15z"/>
 <path class="cls-1" d="m24 8.58a6.06 6.06 0 0 0 6-5.22 21.23 21.23 0 0 0-12 0 6.06 6.06 0 0 0 6 5.22z"/>
 <circle class="cls-1" cx="31.95" cy="16.04" r="2.13"/>
 <path class="cls-1" d="m34.91 13.09a6 6 0 0 0 7.92 0.54 21.64 21.64 0 0 0-8.46-8.46 6 6 0 0 0 0.54 7.92z"/>
 <circle class="cls-1" cx="35.26" cy="24" r="2.13"/>
 <path class="cls-1" d="m44.64 18a6 6 0 0 0 0 12 21.23 21.23 0 0 0 0-12z"/>
 <circle class="cls-1" cx="31.95" cy="31.96" r="2.13"/>
 <path class="cls-1" d="m34.91 34.91a6 6 0 0 0-0.54 7.92 21.64 21.64 0 0 0 8.46-8.46 6 6 0 0 0-7.92 0.54z"/>
</svg>

<svg id="Layer_2" data-name="Layer 2" xmlns="http://www.w3.org/2000/svg" viewBox="0 0 48 48"><defs><style>.cls-1{fill:none;stroke:#fff;stroke-linecap:round;stroke-linejoin:round;}</style></defs><path class="cls-1" d="M24,33.13a2.13,2.13,0,1,0,2.13,2.13A2.13,2.13,0,0,0,24,33.13Z"/><path class="cls-1" d="M24,39.43a6.08,6.08,0,0,0-6,5.21,21.23,21.23,0,0,0,12,0A6.08,6.08,0,0,0,24,39.43Z"/><circle class="cls-1" cx="16.04" cy="31.96" r="2.13"/><path class="cls-1" d="M13.09,34.91a6,6,0,0,0-7.92-.54,21.64,21.64,0,0,0,8.46,8.46A6,6,0,0,0,13.09,34.91Z"/><circle class="cls-1" cx="12.74" cy="24" r="2.13"/><path class="cls-1" d="M8.57,24a6.08,6.08,0,0,0-5.21-6,21.23,21.23,0,0,0,0,12A6.08,6.08,0,0,0,8.57,24Z"/><circle class="cls-1" cx="16.04" cy="16.04" r="2.13"/><path class="cls-1" d="M13.09,13.09a6,6,0,0,0,.54-7.92,21.64,21.64,0,0,0-8.46,8.46A6,6,0,0,0,13.09,13.09Z"/><path class="cls-1" d="M24,10.61a2.14,2.14,0,1,0,2.13,2.15v0A2.13,2.13,0,0,0,24,10.61Z"/><path class="cls-1" d="M24,8.58a6.06,6.06,0,0,0,6-5.22,21.23,21.23,0,0,0-12,0A6.06,6.06,0,0,0,24,8.58Z"/><circle class="cls-1" cx="31.95" cy="16.04" r="2.13"/><path class="cls-1" d="M34.91,13.09a6,6,0,0,0,7.92.54,21.64,21.64,0,0,0-8.46-8.46A6,6,0,0,0,34.91,13.09Z"/><circle class="cls-1" cx="35.26" cy="24" r="2.13"/><path class="cls-1" d="M44.64,18a6,6,0,0,0,0,12A21.23,21.23,0,0,0,44.64,18Z"/><circle class="cls-1" cx="31.95" cy="31.96" r="2.13"/><path class="cls-1" d="M34.91,34.91a6,6,0,0,0-.54,7.92,21.64,21.64,0,0,0,8.46-8.46A6,6,0,0,0,34.91,34.91Z"/></svg>
